X:149
T:Reel 149
M:4/4
K:Amaj
L:1/8
ED|C>A, (3A,A,A, C>A, (3A,A,A, |B,>A, (3A,A,A, E2DC|D>B, (3B,B,B, B,>CB,>C|B,CB, (3B,GA F>E (3DCB, |C>A, (3A,A,A, E,>A, (3A,G,A, |B,A,A,C DCB,A,|B,>D (3CDE F>C (3CB,D |E,A,G,A, G,B,CA,2|CD|E2GF EFED|C>A, (3CB,A, E2CA,| (3B,BB, =GB, F2G,B,|B,B,BG AFED| (3CDC E>A,  (3CB,A, EC| (3AGF EC F2EC|DFEC  (3B,CD |EDCB, A,2|
